X: 39039
T: Swans At Claddagh, The
R: reel
M: 4/4
K: Fmajor
|:DFBc d3f|e2 ec Gcec|1 DFBc d2cB|GFFF GFEC:|2 DEFG Acdc|BGEG F3z||
|:afdF Adaf|e2df ec c2|1 (3ABc dc BG AF|DEFG Acfg:|2 DEFG Acdc|BGEG F3z||

